src/actions/24/media-playlist-repeat.svg

<svg viewBox="0 0 24 24" xmlns="http://www.w3.org/2000/svg">
 <defs>
  <style type="text/css">.ColorScheme-Text {
        color:#2e3440;
      }</style>
 </defs>
 <path class="ColorScheme-Text" d="m17 6v1.5996 0.40039h-10c-1.662 0-3 1.338-3 3v1h1v-1c0-1.108 0.892-2 2-2h10v2l3-2.4004-3-2.5996zm2 6v1c0 1.108-0.892 2-2 2h-10v-2l-3 2.4004 3 2.5996v-1.5996-0.40039h10c1.662 0 3-1.338 3-3v-1h-1z" fill="currentColor"/>
</svg>

<svg xmlns="http://www.w3.org/2000/svg" viewBox="0 0 24 24">
  <defs id="defs3051">
    <style type="text/css" id="current-color-scheme">
      .ColorScheme-Text {
        color:#2e3440;
      }
      </style>
  </defs>
 <path style="fill:currentColor;fill-opacity:1;stroke:none" 
     d="M 17 6 L 17 7.5996094 L 17 8 L 7 8 C 5.338 8 4 9.338 4 11 L 4 12 L 5 12 L 5 11 C 5 9.892 5.892 9 7 9 L 17 9 L 17 11 L 20 8.5996094 L 17 6 z M 19 12 L 19 13 C 19 14.108 18.108 15 17 15 L 7 15 L 7 13 L 4 15.400391 L 7 18 L 7 16.400391 L 7 16 L 17 16 C 18.662 16 20 14.662 20 13 L 20 12 L 19 12 z "
     class="ColorScheme-Text"
     />
</svg>
